X:1
T:Title
%%score { ( 1 3 ) | ( 2 4 ) }
L:1/8
M:4/4
K:F
V:1 treble nm="Grand Piano"
V:3 treble 
V:2 bass 
V:4 bass 
V:1
 z4 z2[Q:1/4=100] C2 | F2 F>F F4 | AGA[GB] [_Ad]2 [C=Ac]2 | %3
 [Cc]-[C-Fc-][C-Gc-][C-Ac-] [C-Bc-]2 [CEc]2 | [Cc]-[C-Ec-][C-Fc-][CGc-] [Ac]2 C2 | F2 F>F F4 | %6
 AGA[GB] [_Ad]2 [=Ac]2 | e4 =B4 | A6[K:bass] z2 | [GB]ABc [ce][Bd][Ac]B | z4 [FA]4 | %11
 [GB]ABc [ce][Bd][Ac][GB] | [FA][Af][_Ae]d [C=Ac]2 C2 | F2 F>F z2 (3fff |[M:9/8] d2 e- e f2- fed | %15
[M:4/4] cdcA [Ec]2 [Ec]2 |[M:5/8] F-F- F3 |[M:3/8] FED |[M:4/4] [A,C]2 [A,CD]2 [A,CE]2 [A,CF]2 | %19
 [FAc]6[K:bass][K:treble] z2 | c6 z2 | c6 z2 | [A,C]2 [A,CD]2 [A,CE]2 [A,CF]2 | %23
 [FAc]6[K:bass][K:treble] z2 | [Ae]2 [Ae]2 [_Ae]2 [Ae]2 | A2 (3aaa a4 | %26
 [EGBc]2 [EGBc]2 [EGBc]2 [EGBc]2 | [FAc]2 [FAc]2 [FAc]2 [Ac]2 | [EGBc]2 [EGBc]2 [EGBc]2 [EGBc]2 | %29
 c2 c2 c2 c2 | f2 d2 c4 | f2 d2 c2 A2 | [Ec] [Ed]3 [EA]2 [EG]2 |[M:3/4] z2 (3fff f2 |] %34
V:2
 z4 z2 C,2 | [F,A,C]2 [F,A,C]>[F,A,C] [F,A,C]4 | [F,CF][F,CE][F,CF][F,C] [F,=B,]2 F,2 | %3
 C,D,E,F, G,2 C,2 | A,G,A,B, C2 C,2 | [F,A,C]2 [F,A,C]>[F,A,C] [F,A,C]4 | %6
 [F,CF][F,CE][F,CF][F,C] [F,=B,]2 [F,C]2 | z2 [E,C]2 z2 [E,_A,]2 | [A,C]6 z2 | %9
 z[K:treble] ^FGA [G,B,E]2 z G | z C z C F,2 F,2 | z[K:treble] ^FGA [G,B,E]2 [G,B,E]2 | %12
 z2 [F,=B,]2 z4 | [F,A,C]2 [F,A,C]>[F,A,C] z2[K:treble] (3[Ac][Ac][Ac] | %14
[M:9/8] [B,DB]2 [CEc]- [CEc] [DFd]2- [DFd][CEc][B,DB] | %15
[M:4/4] [A,CA][B,DB][A,CA][K:bass][F,A,F] [C,C]2 [C,B,]2 |[M:5/8] [F,A,C]-[F,A,C]- [F,A,C]3 | %17
[M:3/8] F,E,D, |[M:4/4] [F,,F,]2 [C,,C,]2 [F,,F,]2 [C,,C,]2 | [F,,F,]2 C,,2 F,,[K:treble]A .A2 | %20
 B6 z2 | A6[K:bass] z2 | [F,,F,]2 [C,,C,]2 [F,,F,]2 [C,,C,]2 | [F,,F,]2 C,,2 F,,2 F,[F,C] | %24
 [E,C]2 [E,C]2 [E,D]2 [E,D]2 | z2 (3[Ace][Ace][Ace] [Ace]4 | C,2 D,2 E,2 G,2 | %27
 C2[K:treble] C2 z2 F2 | C,2 D,2 E,2 G,2 | [CFA]2 [CFA]2 [FA]2 [FA]2 | [DFd]2 [B,DB]2 [A,CA]4 | %31
 [DFd]2 [B,DB]2 [A,CA]2[K:bass] [F,CF]2 | [C,B,] [C,B,]3 [C,C]2 [C,B,]2 | %33
[M:3/4] z2[K:treble] (3[Ac][Ac][Ac] [Ac]2 |] %34
V:3
 x8 | x8 | x8 | .E2 z2 z4 | .F2 z2 z4 | x8 | x8 | z2 A2 z2 D2 | z[K:bass] F,E,C, A,,2 z2 | x8 | %10
 [FA]G[A,F]G C2 C2 | x8 | x8 | z4 F4 |[M:9/8] x9 |[M:4/4] x8 |[M:5/8] x5 |[M:3/8] x3 |[M:4/4] x8 | %19
 z2[K:bass] C,2 F,[K:treble]cdA | z EEE Ecd=B | z CCC CFED | x8 | %23
 z2[K:bass] C,2 F,2[K:treble] [CAc][Ad] | x8 | x8 | x8 | x8 | x8 | x8 | x8 | x8 | x8 |[M:3/4] F6 |] %34
V:4
 x8 | x8 | x8 | x8 | x8 | x8 | x8 | x8 | x8 | C,2[K:treble] [G,B,E]2 z2 [G,B,E]2 | F,,2 F,2 z4 | %11
 C,2[K:treble] [G,B,E]2 z4 | [F,,F,]2 z _A F,2 C,2 | z4 [F,A,C]4[K:treble] |[M:9/8] x9 | %15
[M:4/4] x3[K:bass] x5 |[M:5/8] x5 |[M:3/8] x3 |[M:4/4] x8 | x5[K:treble] x3 | z CCC CBB_A | %21
 z[K:bass] F,F,F, F,F,E,D, | x8 | x8 | x8 | [A,C]6 z2 | x8 | z4[K:treble] C4 | x8 | z4 C4 | x8 | %31
 x6[K:bass] x2 | x8 |[M:3/4] [F,A,C]6[K:treble] |] %34

